components/Common/Svg/svgs/digit3.svg

<svg width="90" height="90" viewBox="0 0 90 90" fill="none" xmlns="http://www.w3.org/2000/svg">
<circle cx="45" cy="45" r="45" fill="#FFE603"/>
<path d="M36.941 38.184C37.0317 35.7587 37.825 33.8887 39.321 32.574C40.817 31.2593 42.8457 30.602 45.407 30.602C47.107 30.602 48.5577 30.8967 49.759 31.486C50.983 32.0753 51.901 32.88 52.513 33.9C53.1477 34.92 53.465 36.0647 53.465 37.334C53.465 38.83 53.091 40.054 52.343 41.006C51.595 41.9353 50.7224 42.57 49.725 42.91V43.046C51.017 43.4767 52.037 44.1907 52.785 45.188C53.533 46.1853 53.907 47.466 53.907 49.03C53.907 50.4353 53.5784 51.682 52.921 52.77C52.2864 53.8353 51.3457 54.674 50.099 55.286C48.875 55.898 47.413 56.204 45.713 56.204C42.993 56.204 40.817 55.5353 39.185 54.198C37.5757 52.8607 36.7257 50.8433 36.635 48.146H42.279C42.3017 49.1433 42.585 49.9367 43.129 50.526C43.673 51.0927 44.4664 51.376 45.509 51.376C46.393 51.376 47.073 51.1267 47.549 50.628C48.0477 50.1067 48.297 49.4267 48.297 48.588C48.297 47.5 47.9457 46.718 47.243 46.242C46.563 45.7433 45.4637 45.494 43.945 45.494H42.857V40.768H43.945C45.101 40.768 46.0304 40.5753 46.733 40.19C47.4584 39.782 47.821 39.068 47.821 38.048C47.821 37.232 47.5944 36.5973 47.141 36.144C46.6877 35.6907 46.0644 35.464 45.271 35.464C44.4097 35.464 43.7637 35.7247 43.333 36.246C42.925 36.7673 42.687 37.4133 42.619 38.184H36.941Z" fill="black"/>
</svg>

<svg width="90" height="90" viewBox="0 0 90 90" fill="none" xmlns="http://www.w3.org/2000/svg"><circle cx="45" cy="45" r="45" fill="#FFE603"/><path d="M36.941 38.184c.09-2.425.884-4.295 2.38-5.61 1.496-1.315 3.525-1.972 6.086-1.972 1.7 0 3.15.295 4.352.884 1.224.59 2.142 1.394 2.754 2.414.635 1.02.952 2.165.952 3.434 0 1.496-.374 2.72-1.122 3.672-.748.93-1.62 1.564-2.618 1.904v.136c1.292.43 2.312 1.145 3.06 2.142.748.997 1.122 2.278 1.122 3.842 0 1.405-.329 2.652-.986 3.74-.635 1.065-1.575 1.904-2.822 2.516-1.224.612-2.686.918-4.386.918-2.72 0-4.896-.669-6.528-2.006-1.61-1.337-2.46-3.355-2.55-6.052h5.644c.023.997.306 1.79.85 2.38.544.567 1.337.85 2.38.85.884 0 1.564-.25 2.04-.748.499-.521.748-1.201.748-2.04 0-1.088-.351-1.87-1.054-2.346-.68-.499-1.78-.748-3.298-.748h-1.088v-4.726h1.088c1.156 0 2.085-.193 2.788-.578.725-.408 1.088-1.122 1.088-2.142 0-.816-.227-1.45-.68-1.904-.453-.453-1.077-.68-1.87-.68-.861 0-1.507.26-1.938.782-.408.521-.646 1.167-.714 1.938h-5.678Z" fill="#000"/></svg>
